!!!OTL: Die Nonne.
!!!OTL-incipit: GOTT GEB IHM EIN VERDORBEN JAHR
!!!ARE: Europa, Mitteleuropa, Deutschland, Niederrhein
!!!SCT: Z1250
!!!TXL: @@DE
!!!YEM: Copyright 1995, estate of Helmut Schaffrath.
**kern	**text
*ICvox	*
*M4/4	*
*met(c)	*
*k[b-]	*
*F:	*
!LO:TX:a:t=Vom Niederrhein.	!
!LO:TX:a:t=(Dieſes Liedes iſt ſchon in der alten Limburger Chronik erwähnt.)	!
{4c	Gott
=1	=1
4a	geb
8b-L	ihm
8aJ	.
4g	ein
4cc	ver-
=2	=2
8fL	-dor-
16e	.
16fJ	.
8gL	-ben
8fJ	.
8eL	Jahr,
8dJ}	.
{4c	der
=3	=3
4f	mich
4f	ge-
4g	-macht
4a	ʒur
=4	=4
(4b-	Non-
8ccL	.
8b-J)	.
4a	-nen,
8r}	.
{8a	der
=5	=5
4a	mir
16b-qqL	.
16ccqqJ	.
8b-L	den
8aJ	.
4g	ſchwar-
4cc	-ʒen
=6	=6
4dd	Man-
8ccL	-tel
8bnJ	.
4cc	gab,
8r}	.
{8cc	den
=7	=7
8ccL	wei-
8b-J	.
8aL	-ßen
8gJ	.
4f	Rock
4f	dar-
=8	=8
(4g	-un-
8ccL	.
8b-J)	.
4a	-ter,
8r}	.
{8f	dar-
=9	=9
4g	-un-
8cc	.
8b-	.
4a}	-ter!
==	==
!!!AGN: Liebes - Lied
!!!ONB: ESAC (Essen Associative Code) Database: ZUCCAL
!!!AMT: simple quadruple
!!!AIN: vox
!!!EED: Helmut Schaffrath
!!!EEV: 1.0
!!!GTL: V. Lieder der Minne.
!!!URL-scan: https://www.digitale-sammlungen.de/de/view/bsb11160573?page=465
!!!ENC: Anna Maria Matuszewska
!!!EEV: 2025/02/06
*-	*-
